X:2098
T:Drömde mig en dröm i natt
R:Visa
O:Lund, Skåne
C:Arr av Åke Persson
Z:Åke Persson, 2011-09-26
N:Finns inspelad på CD:n "60 fiddlers", som inspelades i samband med sjösättnngen av vikingaskeppet "Havhingsten fra Glendalough" i Roskilde 2004.
M:3/4
L:1/4
Q:1/4=170
K:D
"Intro med pizzicato"!+!G2!+!B | !+!A2 !+!B | !+!G2 !+!F | +fermata+!+!E2 z | z3 | 
L:1/8
K:C
[M:3/4]"Del 1"|: B2 Bd cd | B2 A2 G2 | B2 d2 dd | dB G4 |
B2 d2 c2 | d2 (dcB) d | A2 (BAG) B | d2 A4 |
B2 Bd cd | B2 A2 G2 | B2 d2 dd | dB G4 |]
[K:G]"Del 2"[| G2 GB AB | G2 F2 E2 | G2 B2 BB | BG E4 |
G2 B2 A2 | B2 BAG B | F2 GFE G | B2 F4 |
G2 GB AB | G2 F2 E2 | G2 B2 BB | BG E4 :|
[K:C]"Coda" | B2 Bd cd | B2 A2 G2 | B2 d2 dd | dB G4 ||
(:musicend:)
Arrangemanget bygger på tolkningen nedan som långdansmelodi. Del 1 och 2 kan även användas som stämma åt varandra..

''Drömde mig en dröm i natt'' är Nordens äldsta profana visa, nedskriven som en avslutande kommentar med runor och koralnotskrift i ''Codex Runicus'', en avskrift av Skånelagen skriven runt år 1300. Noten saknar taktindelning och notlängder vilket gett upphov till en rad tolkningar (se nedan) av melodin, mer eller mindre väl underbyggda. I några fall har såväl melodi som text kompletterats med fritt diktande. Även innebörden av orden i den korta textraden är oklar, läs mer om det på [[http://sv.wikipedia.org/wiki/Dr%C3%B6mde_mig_en_dr%C3%B6m_i_natt|Wikipedia]]. 

Attach:DromdeMikEnDrom.jpg

----

(:music:)
